assets/Separator-Dots-Sparkles.svg

<?xml version="1.0" encoding="UTF-8"?>
<svg width="119px" height="28px" viewBox="0 0 119 28" version="1.1" xmlns="http://www.w3.org/2000/svg" xmlns:xlink="http://www.w3.org/1999/xlink">
    <!-- Generator: Sketch 54.1 (76490) - https://sketchapp.com -->
    <title>Separator-Dots-Sparkles</title>
    <desc>Created with Sketch.</desc>
    <g id="Page-1" stroke="none" stroke-width="1" fill="none" fill-rule="evenodd">
        <g id="Separator-Dots-Sparkles" fill-rule="nonzero">
            <path d="M74.63,12.102 C76.456,12.708 76.456,15.294 74.63,15.9 C69.5583018,17.5801775 65.5791228,21.558615 63.898,26.63 C63.292,28.456 60.708,28.456 60.102,26.63 C58.4205997,21.5587863 54.441527,17.5804551 49.37,15.9 C47.544,15.294 47.544,12.708 49.37,12.102 C54.4418067,10.4208568 58.4208568,6.44180667 60.102,1.37 C60.708,-0.456 63.292,-0.456 63.898,1.37 C65.5788657,6.44197787 69.5580221,10.4211343 74.63,12.102 Z M62,6.776 C60.2260122,9.74400492 57.7440049,12.2260122 54.776,14 C57.7440049,15.7739878 60.2260122,18.2559951 62,21.224 C63.7738554,18.2558919 66.2558919,15.7738554 69.224,14 C66.2559435,12.2260784 63.7739216,9.74405649 62,6.776 Z" id="Shape" fill="#303030"></path>
            <path d="M10,4 L10,24 C10,24.996 10.896,26 12,26 C13.104,26 14,24.996 14,24 L14,4 C14,3.004 13.104,2 12,2 C10.896,2 10,3.004 10,4 Z" id="Path" fill="#F98386"></path>
            <path d="M22,12 L2,12 C0.976,12 0,12.896 0,14 C0,15.104 0.976,16 2,16 L22,16 C23.024,16 24,15.104 24,14 C24,12.896 23.024,12 22,12 Z" id="Path" fill="#F98386"></path>
            <path d="M115.556,5.514 L101.416,19.656 C100.71,20.36 100.634,21.704 101.416,22.486 C102.196,23.266 103.538,23.19 104.242,22.486 L118.384,8.344 C119.088,7.64 119.164,6.296 118.384,5.514 C117.604,4.734 116.26,4.81 115.556,5.514 L115.556,5.514 Z" id="Path" fill="#7EA1B8"></path>
            <path d="M118.384,19.656 L104.244,5.516 C103.518,4.79 102.196,4.734 101.414,5.516 C100.634,6.296 100.69,7.62 101.414,8.344 L115.556,22.484 C116.28,23.21 117.604,23.266 118.384,22.484 C119.164,21.704 119.108,20.38 118.384,19.656 Z" id="Path" fill="#7EA1B8"></path>
        </g>
    </g>
</svg>

<svg width="119" height="28" xmlns="http://www.w3.org/2000/svg">
  <g fill-rule="nonzero" fill="none">
    <path d="M74.63 12.102c1.826.606 1.826 3.192 0 3.798a16.908 16.908 0 0 0-10.732 10.73c-.606 1.826-3.19 1.826-3.796 0A16.91 16.91 0 0 0 49.37 15.9c-1.826-.606-1.826-3.192 0-3.798A16.912 16.912 0 0 0 60.102 1.37c.606-1.826 3.19-1.826 3.796 0A16.91 16.91 0 0 0 74.63 12.102zM62 6.776A20.92 20.92 0 0 1 54.776 14 20.92 20.92 0 0 1 62 21.224 20.916 20.916 0 0 1 69.224 14 20.918 20.918 0 0 1 62 6.776z" fill="#303030"/>
    <path d="M10 4v20c0 .996.896 2 2 2s2-1.004 2-2V4c0-.996-.896-2-2-2s-2 1.004-2 2z" fill="#F98386"/>
    <path d="M22 12H2c-1.024 0-2 .896-2 2s.976 2 2 2h20c1.024 0 2-.896 2-2s-.976-2-2-2z" fill="#F98386"/>
    <path d="M115.556 5.514l-14.14 14.142c-.706.704-.782 2.048 0 2.83.78.78 2.122.704 2.826 0l14.142-14.142c.704-.704.78-2.048 0-2.83-.78-.78-2.124-.704-2.828 0z" fill="#7EA1B8"/>
    <path d="M118.384 19.656l-14.14-14.14c-.726-.726-2.048-.782-2.83 0-.78.78-.724 2.104 0 2.828l14.142 14.14c.724.726 2.048.782 2.828 0 .78-.78.724-2.104 0-2.828z" fill="#7EA1B8"/>
  </g>
</svg>
